preview/assets/images/check.svg

<?xml version="1.0" encoding="UTF-8"?>
<svg width="14px" height="14px" viewBox="0 0 14 14" version="1.1" xmlns="http://www.w3.org/2000/svg" xmlns:xlink="http://www.w3.org/1999/xlink">
    <!-- Generator: Sketch 60 (88103) - https://sketch.com -->
    <title>check</title>
    <desc>Created with Sketch.</desc>
    <g id="Page-1" stroke="none" stroke-width="1" fill="none" fill-rule="evenodd">
        <path d="M7,0 C3.13413333,0 0,3.13413333 0,7 C0,10.8658667 3.13413333,14 7,14 C10.8658667,14 14,10.8658667 14,7 C14,3.13413333 10.8658667,0 7,0 Z M10.7537244,6.3676758 L7.20437629,9.76510296 C6.87725389,10.078299 6.34760491,10.078299 6.02048251,9.76510296 L4.2453418,8.06684395 C3.9182194,7.75410246 3.9182194,7.24680667 4.2453418,6.93361062 C4.57246421,6.62041456 5.10211318,6.62041456 5.42923559,6.93361062 L6.61312938,8.06684395 L9.57123056,5.23489704 C9.89835297,4.92170099 10.4280019,4.92170099 10.7551243,5.23489704 C11.0822468,5.5480931 11.0813135,6.05493432 10.754191,6.36813037 L10.754191,6.36722124 L10.7537244,6.3676758 Z" id="check" fill="#FF7C83" fill-rule="nonzero"></path>
    </g>
</svg>

<svg width="14" height="14" xmlns="http://www.w3.org/2000/svg"><path d="M7 0a7 7 0 100 14A7 7 0 007 0zm3.754 6.368l-3.55 3.397a.863.863 0 01-1.184 0L4.245 8.067a.777.777 0 010-1.133.863.863 0 011.184 0l1.184 1.133 2.958-2.832a.863.863 0 011.184 0 .777.777 0 010 1.133h-.001z" fill="#FF7C83" fill-rule="nonzero"/></svg>
